X: 10041
M: C
L: 1/8
P: "Moderato"
K: C
c2 e>d d3 G | c2 e>c G2 G2 | A2 c2 ((3cdc (3Bc) A |
{c'}b>a b>d' c'2 ze | d2 d2 B3 d | (dc) (A^F) G3 d |
(B>c) (d>e) (d g2) d/B/ | {B/}A>G A>d HG3 G | c2 e>c G2 G2 |



